img/reg-3.svg

<svg width="110" height="104" viewBox="0 0 110 104" fill="none" xmlns="http://www.w3.org/2000/svg">
<ellipse cx="55.5" cy="51.9995" rx="43.5" ry="41" fill="#5CB3FF"/>
<path opacity="0.4" d="M55 103C84.7677 103 109 80.2201 109 51.9995C109 23.7789 84.7677 0.999512 55 0.999512C25.2323 0.999512 1 23.7789 1 51.9995C1 80.2201 25.2323 103 55 103Z" stroke="#5CB3FF" stroke-width="2"/>
<path d="M73 34.3766C73 35.7725 72.0981 36.9883 70.8164 37.4836V66.9995H35L45.0162 51.8475C44.6943 51.3287 44.5224 50.7385 44.5178 50.1365C44.5178 48.2678 46.1081 46.7594 48.0781 46.7594C50.0481 46.7594 51.6384 48.2678 51.6384 50.1365C51.6384 50.4292 51.5909 50.6993 51.5197 50.9695L54.9375 52.3879C55.5784 51.7125 56.5278 51.2622 57.5721 51.2622C57.9994 51.2622 58.4029 51.3522 58.7826 51.4648L67.2798 37.0333C66.4254 36.4254 65.8795 35.4573 65.8795 34.3766C65.8795 32.508 67.4697 30.9995 69.4397 30.9995C69.8907 30.9995 70.2942 31.0896 70.6977 31.2247L70.8164 31.022V31.2697C72.0981 31.765 73 32.9807 73 34.3766ZM68.4429 64.7481V39.6674L60.634 52.9282C60.9425 53.446 61.1324 54.0089 61.1324 54.6393C61.1324 56.508 59.5422 58.0164 57.5721 58.0164C55.6021 58.0164 54.0119 56.508 54.0119 54.6393L54.0356 54.4817L50.1668 52.8607C49.5734 53.2659 48.8613 53.5136 48.0781 53.5136C47.6508 53.5136 47.2473 53.4235 46.8676 53.2884L39.2723 64.7481H68.4429Z" fill="#051761"/>
</svg>

<svg width="110" height="104" fill="none" xmlns="http://www.w3.org/2000/svg"><ellipse cx="55.5" cy="51.999" rx="43.5" ry="41" fill="#5CB3FF"/><path opacity=".4" d="M55 103c29.768 0 54-22.78 54-51 0-28.221-24.232-51-54-51S1 23.779 1 52c0 28.22 24.232 51 54 51z" stroke="#5CB3FF" stroke-width="2"/><path d="M73 34.377c0 1.395-.902 2.611-2.184 3.107v29.515H35l10.016-15.151a3.29 3.29 0 0 1-.498-1.712c0-1.868 1.59-3.377 3.56-3.377s3.56 1.509 3.56 3.377c0 .293-.047.563-.118.833l3.417 1.419a3.653 3.653 0 0 1 2.635-1.126c.427 0 .83.09 1.21.203l8.498-14.432c-.855-.608-1.4-1.576-1.4-2.656 0-1.869 1.59-3.378 3.56-3.378.45 0 .854.09 1.258.226l.118-.203v.248c1.282.495 2.184 1.71 2.184 3.107zm-4.557 30.371v-25.08l-7.809 13.26c.309.518.498 1.08.498 1.711 0 1.869-1.59 3.377-3.56 3.377s-3.56-1.508-3.56-3.377l.024-.157-3.87-1.621a3.682 3.682 0 0 1-2.088.653c-.427 0-.83-.09-1.21-.226l-7.596 11.46h29.17z" fill="#051761"/></svg>
